src/img/logos/discord.svg

<svg width="150" height="150" viewBox="0 0 150 150" fill="none" xmlns="http://www.w3.org/2000/svg">
<path d="M75 0C33.5787 0 0 33.5787 0 75.0004C0 116.422 33.5787 150 75 150C116.421 150 150 116.422 150 75.0004C150 33.5791 116.421 0 75 0ZM99.3353 111.547C99.3353 111.547 96.1931 107.764 93.5635 104.429C99.9325 102.933 105.567 99.2292 109.466 93.9767C106.295 96.0816 102.896 97.8243 99.3344 99.171C95.2232 100.933 90.9184 102.203 86.5088 102.954C78.9658 104.376 71.2233 104.376 63.6803 102.954C59.2975 102.09 55.0044 100.824 50.8542 99.171C48.6454 98.3499 46.502 97.3641 44.4416 96.2207L43.6083 95.7723H43.2873C41.6841 94.8741 40.7864 94.2333 40.7864 94.2333C44.5497 99.383 49.9933 103.058 56.1766 104.621L50.3412 111.932C39.7289 112.208 29.6682 107.214 23.4727 98.5938C23.7975 80.7416 28.1837 63.1974 36.2984 47.2924C43.3719 41.7302 51.9992 38.503 60.9865 38.0583L61.8847 39.1493C53.4201 41.2319 45.5166 45.1499 38.7352 50.6279C38.7352 50.6279 40.6594 49.6018 43.9302 48.0628C50.249 45.1943 56.9784 43.3334 63.8735 42.5479H65.4125C71.3117 41.8384 77.2759 41.8384 83.1755 42.5479C92.4654 43.6016 101.461 46.4542 109.659 50.9485C103.219 45.7224 95.7446 41.9201 87.7284 39.7909L88.9464 38.3806C97.9526 38.8286 106.6 42.0551 113.7 47.6143C121.799 63.5252 126.184 81.0656 126.525 98.9149C120.11 107.364 109.931 112.093 99.3353 111.547ZM99.5276 80.2533C99.5276 85.637 95.5082 90.0009 90.55 90.0009C85.5917 90.0009 81.5723 85.637 81.5723 80.2533C81.5723 74.8697 85.5917 70.5053 90.55 70.5053C95.5082 70.5053 99.5276 74.8701 99.5276 80.2533ZM67.465 80.0601C67.4733 80.4117 67.4616 80.7638 67.4323 81.1134C66.9729 86.513 62.2238 90.5177 56.8246 90.0583C51.4254 89.599 47.4203 84.8503 47.8796 79.4507C48.3386 74.0515 53.0877 70.0468 58.4873 70.5057C63.583 70.7144 67.5744 74.9619 67.465 80.0601Z" fill="black"/>
</svg>

<?xml version="1.0" encoding="utf-8"?>
<!-- Generator: Adobe Illustrator 16.0.2, SVG Export Plug-In . SVG Version: 6.00 Build 0)  -->
<!DOCTYPE svg PUBLIC "-//W3C//DTD SVG 1.1//EN" "http://www.w3.org/Graphics/SVG/1.1/DTD/svg11.dtd">
<svg version="1.1" id="Layer_1" xmlns="http://www.w3.org/2000/svg" xmlns:xlink="http://www.w3.org/1999/xlink" x="0px" y="0px"
	 width="150px" height="150px" viewBox="0 0 150 150" enable-background="new 0 0 150 150" xml:space="preserve">
<path fill="#EBE4E9" d="M75,0C33.579,0,0,33.579,0,75c0,41.421,33.579,75,75,75c41.421,0,75-33.578,75-75S116.421,0,75,0z
	 M99.336,111.547c0,0-3.143-3.783-5.772-7.117c6.369-1.496,12.003-5.201,15.902-10.453c-3.171,2.105-6.569,3.848-10.132,5.194
	c-4.111,1.763-8.416,3.032-12.825,3.783c-7.543,1.422-15.286,1.422-22.829,0c-4.383-0.864-8.676-2.13-12.826-3.783
	c-2.208-0.821-4.352-1.807-6.413-2.95l-0.833-0.448h-0.321c-1.603-0.898-2.5-1.539-2.5-1.539c3.763,5.149,9.207,8.825,15.39,10.388
	l-5.835,7.311c-10.612,0.276-20.673-4.718-26.869-13.338c0.325-17.852,4.711-35.396,12.826-51.301
	c7.074-5.562,15.701-8.79,24.688-9.234l0.898,1.091c-8.465,2.083-16.368,6-23.149,11.479c0,0,1.924-1.026,5.195-2.565
	c6.319-2.869,13.048-4.729,19.943-5.515h1.539c5.899-0.709,11.863-0.709,17.763,0c9.289,1.054,18.285,3.906,26.483,8.4
	c-6.44-5.226-13.915-9.028-21.931-11.157l1.218-1.41c9.007,0.448,17.653,3.674,24.754,9.233
	c8.099,15.911,12.483,33.451,12.825,51.301C120.109,107.364,109.932,112.093,99.336,111.547z M99.527,80.254
	c0,5.383-4.02,9.747-8.978,9.747s-8.978-4.364-8.978-9.747c0-5.384,4.02-9.749,8.978-9.749S99.527,74.87,99.527,80.254z
	 M67.465,80.061c0.008,0.352-0.003,0.703-0.033,1.053c-0.459,5.4-5.208,9.404-10.607,8.945c-5.399-0.459-9.404-5.209-8.945-10.607
	c0.459-5.399,5.208-9.404,10.608-8.945C63.583,70.714,67.574,74.962,67.465,80.061z"/>
</svg>
